X:1
T:Open Mine Eyes
T:Open Mine Eyes
T:William Evander Penn
T:Frances Jane (Fanny) Crosby, 1887
T:Public Domain Courtesy of the Cyber Hymnal™
C:William Evander Penn
Z:Public Domain
Z:Courtesy of the Cyber Hymnal™
%%score ( 1 2 ) ( 3 4 )
L:1/8
Q:1/4=110
M:6/8
K:G
V:1 treble 
V:2 treble 
V:3 bass 
V:4 bass 
V:1
 [DB][DB][DB] [DA]2 [DG] | D3 [DG]2 G | [FA][FA][GB] [Ac]2 [Ac] | [GB]3- [GB]2 [GB] | %4
w: 1.~O- pen mine eyes, dear|Sav- ior, I|thirst in the noon- tide|heat, * I|
w: 2.~O- pen mine eyes, dear|Sav- ior, I|faint ’neath the burn- ing|sky, * And|
w: 3.~O- pen mine eyes, dear|Sav- ior, I|know that the well is|near; * But|
w: 4.~Whence is the voice that|call- eth? And|what do mine eyes be-|hold? * O|
 [GB][GB][GB] (AG)[CE] | D3 [DG]2 G | [EA][DG][EA] [DB]2 [CA] | [B,G]6 || %8
w: pine for re- fresh- * ing|wa- ters That|mur- mur so cool and|sweet.|
w: here, in a lone- * ly|de- sert, For|wa- ter in vain I|cry.|
w: O that my strength * were|strong- er, Its|miss- ion more bright and|clear.|
w: Sav- ior, my prayer * is|an- swered, ’Tis|an- swered a hun- dred|fold.|
"^Refrain" [Gd][G^c][Gd] [Ge]2 [E=c] | [DB]2 [Gd] [Fd]3 | [Fc][GB][Ac] [Bd]2 [FA] | %11
w: |||
w: O- pen mine eyes, dear|Sav- ior, now,|O- pen mine eyes to|
w: Praise to Thy Name, dear|Sav- ior mine,|Joy- ful- ly now I|
w: |||
 [GB]3- [GB]2 [Gd] | [Gd][G^c][Gd] [Ge]2 [E=c] | [DB]3 [Gd]2 [DB] | %14
w: |||
w: see * The|well of Thy full sal-|va- tion That|
w: see * The|well of Thy full sal-|va- tion That|
w: |||
 [DB][^C^A][DB] !fermata![E=c]2 [DF] | [DG]6 |] %16
w: ||
w: spark- les and flows for|me.|
w: spark- les and flows for|me.|
w: ||
V:2
 x6 | D3 G x2 | x6 | x6 | x3 E2 x | D3 G x2 | x6 | x6 || x6 | x6 | x6 | x6 | x6 | x6 | x6 | x6 |] %16
V:3
 G,G,G, [D,F,]2 [B,,G,] | [G,,B,]3 [G,,B,]2 [B,,D] | [D,D][D,D][D,D] [D,D]2 [D,D] | %3
 [G,D]3- [G,D]2 [G,D] | [G,D][G,D][G,D] [C,C]2 [C,C] | [G,,B,]3 [G,,B,]2 [G,,B,] | %6
 [C,G,][C,G,][C,G,] [D,G,]2 [D,F,] | [G,,G,]6 || [G,B,][G,^A,][G,B,] [C,C]2 [C,G,] | %9
 G,2 [G,B,] [D,A,]3 | [D,D][D,D][D,D] [D,D]2 [D,D] | [G,D]3- [G,D]2 [G,B,] | %12
 [G,B,][G,^A,][G,B,] [C,C]2 [C,G,] | G,3 [G,B,]2 G, | G,G,G, !fermata![C,G,]2 [D,C] | [G,,B,]6 |] %16
V:4
 G,G,G, x3 | x6 | x6 | x6 | x6 | x6 | x6 | x6 || x6 | G,2 x4 | x6 | x6 | x6 | G,3 G, x2 | %14
 G,G,G, x3 | x6 |] %16

